X:4
T:Mazurka  GC 10- (mz02015) 
O:Switzerland
%%MIDI program 21
R:mazurka
M:3/4
L:1/8
K:G%%MIDI gchordon
"G"B,>D G3B, | "Am"C>E C>E A,2 | "D7"C>EA3C | "G"CB, DG B,D | D>B B3G | "D7"Fc A3F | F>A F>A C2 | 
"G"G>D B,>DG2 | B,>D G3B, | "Am"C>E C>EB,2 | "D7"CA A3C | "G"CB, DG B2 | DG B3G | "D7"Bcc2z2 | 
A>D F>A DF | "G"G2G2z2 |: "Am"CB, CD "D7"FE | "G"D>B B2G2 | "D7"F>E D>F A>B | "G"G>B D>G B,>D | 
"Am"CB, CD "D7"FE | "G"D>BB2G2 | "D7"D>cc2F2 | "G"G2G2z2 :| [K:C] "C"E3E DE | "G7"F3F EF | B>A G>F E>D | 
"C"CA G3G | E3E D>E | "G7"F3F EF | B>A G>F E>D | "C"C2C2z2 :: "G7"F2 DB BA | "C"G2 EG c2 | 
"G7"B2 FB BA | "C"G2 EA G2 | "G7"F2 DB BA | "C"G2 EG c2 | "G7"B>A G>F E>D | "C"C2C2z2 :| 
% mz02015

